X:27
T:Badinerie
R:misc
C:Johann Sebastian Bach (1685-1750)
H:Badinerie from Orchestral Suite No. 2 in B minor
Z:id:hn-misc-27
M:2/4
L:1/16
Q:1/4=120
K:Bm
b2d'b f2bf | d2fd B4 | FBdB cBcB | ^Acec d2B2 | 
b2d'b f2bf | d2fd B4 | dcd2 dcd2 | b2d2 d2c2 | f^ef2 fef2 | d'2f2 f2^e2 |
cfaf ^gfgf | ^e^gbg agag | faf^e fbfe |
fc'f^e fd'fe | fd'c'b c'a^gf | a2^g2 f4 :|
|: f2af c2fc | A2cA F4 | =c2B2 e2^df | a2gf g2e2 |
g2bg e2ge | c2ec A4 | Adfd eded | cege fefe | dfdc dgdc | dadc dbdc |
dbag afed | f2e2 d4 | fef2 fef2 | d'2f2 f2e2 | ede2 ede2 | c'2e2 e2d2 |
b2d'b a2g2- | g2b/a/g/f/ e4- | e2g/f/e/d/ =cege | =cBcB ^A2F2 |
G2F2 B2^Ac | e2dc d2B/c/d/e/ | f2df b2f2 | edcd c2B2 :|
